;Part: test_2C42-65_mill.prt 
;Material: 
;Program: PROGRAM_TEST_1
;chudoyakoveb68, Date:Sat Jul 21 09:51:05 2007 
;MACHINE: VSTAR 
 
;LIMITS=
;MIN  X-116 Y-135 Z-59 B+0.000 C+0.000
;MAX  X+120 Y+203 Z+300 B+0.000 C+0.000
 
;TIME:74.4'
;-----------
;TOOL =1 tm=72.5' =F30R1 D=30.00  r=1.00 
;TOOL =4 tm=1.9' =F12R1 D=12.00  r=1.00 
;-----------
G90
SPEC_UGV
TRAFOOF
G54
CUT2D
TIME_ON
   
; P1
N1 G0M5M9
N2 TRAFOOF
; TOOL: F30R1  D=30.00 r1=1.00 z=2 
N3 T1
N4 TOOL_CHANGE
N5 D3
HEAD_CLEAN
N6 D3
R199=2
BLUM9902
TRANS_COR
N7 D1
N8 G54
N9 M3S1400
N10 M3S1400
N11 G0G90X53.839Y129.142C0.0
N12 TRAORI
N13 G54
N14 G0X53.839Y129.142Z100.B0.0
N15 G1Z5.F3000.M8
N16 Z4.642F150.
N17 Z-.358F160.
N18 Y115.Z-14.5
N19 X115.
N20 Y-115.
N21 X-115.
N22 Y115.
N23 X53.839
N24 Y101.
N25 X101.
N26 Y-101.
N27 X-101.
N28 Y101.
N29 X53.839
N30 Y87.
N31 X87.
N32 Y-53.839
N33 X73.
N34 Y-73.
N35 X2.604
N36 X69.992Y-54.943
N37 G17G3X73.Y-53.839I-4.607J17.193
N38 G1X71.802Y-51.308
N39 G2X69.267Y-52.239I-6.417J13.558
N40 G1X1.879Y-70.295
N41 X-33.868Y-79.874
N42 G2X-52.239Y-69.267I-3.882J14.489
N43 G1X-79.874Y33.868
N44 G2X-69.267Y52.239I14.489J3.882
N45 G1X33.868Y79.874
N46 G2X52.239Y69.267I3.882J-14.489
N47 G1X79.874Y-33.868
N48 G2X71.802Y-51.308I-14.489J-3.882
N49 G1X73.Y-53.839
N50 X87.
N51 Y-87.
N52 X-53.839
N53 Y-73.
N54 X-73.
N55 Y-2.604
N56 X-54.943Y-69.992
N57 G3X-53.839Y-73.I17.193J4.607
N58 G1Y-87.
N59 X-87.
N60 Y53.839
N61 X-73.
N62 Y73.
N63 X-2.604
N64 X-69.992Y54.943
N65 G3X-73.Y53.839I4.607J-17.193
N66 G1X-87.
N67 Y87.
N68 X53.839
N69 Y73.
N70 X73.
N71 Y2.604
N72 X54.943Y69.992
N73 G3X53.839Y73.I-17.193J-4.607
N74 G1Z-9.5F150.
N75 Z100.F3000.
   
; P2
N76 G1X-33.703Y-134.612S600
N77 Z5.
N78 Z-15.578F150.
N79 Z-20.578F160.
N80 Y-115.Z-24.5
N81 X-115.
N82 Y115.
N83 X115.
N84 Y-115.
N85 X-33.703
N86 Y-101.
N87 X-101.
N88 Y33.703
N89 X-87.
N90 Y87.
N91 X-33.703
N92 G3X-87.Y33.703I33.703J-87.
N93 G1X-84.389Y32.692
N94 G2X-32.692Y84.389I84.389J-32.692
N95 X-84.389Y32.692I32.692J-84.389
N96 G1X-87.Y33.703
N97 X-101.
N98 Y101.
N99 X33.703
N100 Y87.
N101 X87.
N102 Y33.703
N103 G3X33.703Y87.I-87.J-33.703
N104 G1Y101.
N105 X101.
N106 Y-33.703
N107 X87.
N108 Y-87.
N109 X33.703
N110 G3X87.Y-33.703I-33.703J87.
N111 G1X101.
N112 Y-101.
N113 X-33.703
N114 Y-87.
N115 X-87.
N116 Y-33.703
N117 G3X-33.703Y-87.I87.J33.703
N118 G1Z-19.5F150.
N119 Z100.F3000.
   
; P3
N120 G1X0.0Y129.142S700
N121 Z-20.358
N122 Y115.Z-34.5F160.
N123 X115.
N124 Y-115.
N125 X-115.
N126 Y115.
N127 X0.0
N128 Y101.
N129 X101.
N130 Y-101.
N131 X-101.
N132 Y101.
N133 X0.0
N134 Y90.5
N135 X72.5
N136 G2X90.5Y72.5I0.0J-18.
N137 G1Y-72.5
N138 G2X72.5Y-90.5I-18.J0.0
N139 G1X-72.5
N140 G2X-90.5Y-72.5I0.0J18.
N141 G1Y72.5
N142 G2X-72.5Y90.5I18.J0.0
N143 G1X2.5
N144 G3X22.5Y110.5I0.0J20.F150.
N145 G1Z-29.5
N146 Z100.F3000.
   
; P4
N147 G0X119.924Y-104.642Z50.
N148 G1Z-36.227F150.
N149 Y-90.5Z-50.369F100.
N150 X-89.277Z-32.066F160.
N151 Z50.F150.
   
; P4A
N152 G0X-90.5Y119.924
N153 G1Z-15.369
N154 Y127.101Z-17.98F100.
N155 Y128.871Z-18.741
N156 Y130.541Z-19.701
N157 Y132.089Z-20.847
N158 Y133.496Z-22.163
N159 Y134.742Z-23.632
N160 Y135.811Z-25.234
N161 Y136.689Z-26.949
N162 Y137.364Z-28.753
N163 Y137.827Z-30.623
N164 Y138.071Z-32.533
N165 Y138.095Z-34.459
N166 Y137.897Z-36.375
N167 Y137.481Z-38.256
N168 Y136.85Z-40.076
N169 Y136.015Z-41.812
N170 Y134.986Z-43.44
N171 Y133.777Z-44.939
N172 Y132.403Z-46.29
N173 Y130.883Z-47.473
N174 Y129.237Z-48.474
N175 Y127.487Z-49.279
N176 Y125.656Z-49.877
N177 Y123.769Z-50.261
N178 Y121.849Z-50.426
N179 Y119.924Z-50.369
N180 Y-89.277Z-32.066F160.
N181 Z50.F150.
   
; P5
N182 G0X-5.719Y130.
N183 Z7.54
N184 G1Z-55.46
N185 Z-58.F100.
N186 G3X9.281Y115.I15.J0.0
N187 G1X11.781
N188 X100.F160.
N189 G2X115.Y100.I0.0J-15.
N190 G1Y-100.
N191 G2X100.Y-115.I-15.J0.0
N192 G1X-100.
N193 G2X-115.Y-100.I0.0J15.
N194 G1Y100.
N195 G2X-100.Y115.I15.J0.0
N196 G1X14.281
N197 G3X29.281Y130.I0.0J15.F150.
N198 G1Z-55.46
N199 G0Z50.
N200 M5
   
; P8
N201 G0M9
N202 TRAFOOF
N203 D3
HEAD_CLEAN
N204 D3
R199=8
BLUM9908
TOOL_BREAK_CHECK
; TOOL: F12R1  D=12.00 r1=1.00 z=2 
N205 T4
N206 TOOL_CHANGE
N207 D3
HEAD_CLEAN
N208 D3
R199=2
BLUM9902
TRANS_COR
N209 D1
N210 G54
N211 M3S1400
N212 M3S1400
N213 G0X-34.747Y15.573C0.0
N214 TRAORI
N215 G54
N216 G0X-34.747Y15.573Z50.B0.0
N217 Z-30.
N218 G1X-39.Y16.M8
N219 G3I4.J0.0F100.
N220 G1X-31.125Y20.471F160.
N221 G3X-43.655Y18.468I-5.798J-3.923F100.
N222 X-44.Y16.I8.655J-2.468
N223 I9.J0.0F160.
N224 X-43.655Y13.532I9.J0.0
N225 X-35.49Y8.6I6.732J1.92F150.
N226 G0Z50.
N227 X35.604Y-15.339
N228 Z-30.
N229 G1X31.Y-16.
N230 G3I4.J0.0F100.
N231 G1X38.875Y-11.529F160.
N232 G3X26.345Y-13.532I-5.798J-3.923F100.
N233 X26.Y-16.I8.655J-2.468
N234 I9.J0.0F160.
N235 X26.345Y-18.468I9.J0.0
N236 X34.51Y-23.4I6.732J1.92F150.
N237 G0Z50.
N238 M9
N239 M5
N240 TRAFOOF
N241 D3
HEAD_CLEAN
N242 D3
N243 ; T22
N244 ; TOOL_CHANGE
TIME_OFF
; Time=74.4' = 1 h 15 min  
; Dist=16620.167mm
N245 M30
