%
;Part: test_2C42-65_mill.prt
;Material:
;Program: test_2C42-65_mill
;chudoyakoveb68, Date:Sat Jul 21 09:51:54 2007
;MACHINE: NC110
  
N1 (UAO,1)
(UCG,2, X-120.0 X124.0 , Y-140.0 Y143.0 ,Z)
 ; TOOL: F30R1  N=1 D=30.00 r1=1.00 L=75.00
N2 T1. M6
 ; TOOL: F30R1  N=1 D=30.00 r1=1.00 L=75.00
N3 T1. M6
N4 G0 G97 M42 S1400.
N5 M3
N6 G97 M42 S1400.
N7 M3
N8 G0 G71 G90 X53.839 Y129.142
N9 Z100.
N10 Z5.
N11 G1 G94 Z4.642 F150.
N12 Z-.358 F160.
N13 Y115. Z-14.5
N14 X115.
N15 Y-115.
N16 X-115.
N17 Y115.
N18 X53.839
N19 Y101.
N20 X101.
N21 Y-101.
N22 X-101.
N23 Y101.
N24 X53.839
N25 Y87.
N26 X87.
N27 Y-53.839
N28 X73.
N29 Y-73.
N30 X2.604
N31 X69.992 Y-54.943
N32 G17
N33 G3 X73. Y-53.839 I65.385 J-37.75
N34 G1 X71.802 Y-51.308
N35 G2 X69.267 Y-52.239 I65.385 J-37.75
N36 G1 X1.879 Y-70.295
N37 X-33.868 Y-79.874
N38 G2 X-52.239 Y-69.267 I-37.75 J-65.385
N39 G1 X-79.874 Y33.868
N40 G2 X-69.267 Y52.239 I-65.385 J37.75
N41 G1 X33.868 Y79.874
N42 G2 X52.239 Y69.267 I37.75 J65.385
N43 G1 X79.874 Y-33.868
N44 G2 X71.802 Y-51.308 I65.385 J-37.75
N45 G1 X73. Y-53.839
N46 X87.
N47 Y-87.
N48 X-53.839
N49 Y-73.
N50 X-73.
N51 Y-2.604
N52 X-54.943 Y-69.992
N53 G3 X-53.839 Y-73. I-37.75 J-65.385
N54 G1 Y-87.
N55 X-87.
N56 Y53.839
N57 X-73.
N58 Y73.
N59 X-2.604
N60 X-69.992 Y54.943
N61 G3 X-73. Y53.839 I-65.385 J37.75
N62 G1 X-87.
N63 Y87.
N64 X53.839
N65 Y73.
N66 X73.
N67 Y2.604
N68 X54.943 Y69.992
N69 G3 X53.839 Y73. I37.75 J65.385
N70 G1 Z-9.5 F150.
N71 G0 Z100.
N72 G0 G79 Z0
N73 M0
N74 T1. M6
N75 G0 G71 X-33.703 Y-134.612
N76 Z100.
N77 Z5.
N78 G1 Z-15.578
N79 Z-20.578 F160.
N80 Y-115. Z-24.5
N81 X-115.
N82 Y115.
N83 X115.
N84 Y-115.
N85 X-33.703
N86 Y-101.
N87 X-101.
N88 Y33.703
N89 X-87.
N90 Y87.
N91 X-33.703
N92 G3 X-87. Y33.703 I0 J0
N93 G1 X-84.389 Y32.692
N94 G2 X-32.692 Y84.389 I0 J0
N95 X-84.389 Y32.692 I0 J0
N96 G1 X-87. Y33.703
N97 X-101.
N98 Y101.
N99 X33.703
N100 Y87.
N101 X87.
N102 Y33.703
N103 G3 X33.703 Y87. I0 J0
N104 G1 Y101.
N105 X101.
N106 Y-33.703
N107 X87.
N108 Y-87.
N109 X33.703
N110 G3 X87. Y-33.703 I0 J0
N111 G1 X101.
N112 Y-101.
N113 X-33.703
N114 Y-87.
N115 X-87.
N116 Y-33.703
N117 G3 X-33.703 Y-87. I0 J0
N118 G1 Z-19.5 F150.
N119 G0 Z100.
N120 X0 Y129.142
N121 Z100.
N122 Z-20.358
N123 G1 Y115. Z-34.5 F160.
N124 X115.
N125 Y-115.
N126 X-115.
N127 Y115.
N128 X0
N129 Y101.
N130 X101.
N131 Y-101.
N132 X-101.
N133 Y101.
N134 X0
N135 Y90.5
N136 X72.5
N137 G2 X90.5 Y72.5 I72.5 J72.5
N138 G1 Y-72.5
N139 G2 X72.5 Y-90.5 I72.5 J-72.5
N140 G1 X-72.5
N141 G2 X-90.5 Y-72.5 I-72.5 J-72.5
N142 G1 Y72.5
N143 G2 X-72.5 Y90.5 I-72.5 J72.5
N144 G1 X2.5
N145 G3 X22.5 Y110.5 I2.5 J110.5 F150.
N146 G1 Z-29.5
N147 G0 Z100.
N148 X119.924 Y-104.642
N149 Z50.
N150 G1 Z-36.227
N151 Y-90.5 Z-50.369 F100.
N152 X-89.277 Z-32.066 F160.
N153 Z50. F150.
N154 G0 X-90.5 Y119.924
N155 G1 Z-15.369
N156 Y127.101 Z-17.98 F100.
N157 Y128.871 Z-18.741
N158 Y130.541 Z-19.701
N159 Y132.089 Z-20.847
N160 Y133.496 Z-22.163
N161 Y134.742 Z-23.632
N162 Y135.811 Z-25.234
N163 Y136.689 Z-26.949
N164 Y137.364 Z-28.753
N165 Y137.827 Z-30.623
N166 Y138.071 Z-32.533
N167 Y138.095 Z-34.459
N168 Y137.897 Z-36.375
N169 Y137.481 Z-38.256
N170 Y136.85 Z-40.076
N171 Y136.015 Z-41.812
N172 Y134.986 Z-43.44
N173 Y133.777 Z-44.939
N174 Y132.403 Z-46.29
N175 Y130.883 Z-47.473
N176 Y129.237 Z-48.474
N177 Y127.487 Z-49.279
N178 Y125.656 Z-49.877
N179 Y123.769 Z-50.261
N180 Y121.849 Z-50.426
N181 Y119.924 Z-50.369
N182 Y-89.277 Z-32.066 F160.
N183 Z50. F150.
N184 X-5.719 Y130.
N185 Z50.
N186 Z7.54
N187 G1 Z-55.46
N188 Z-58. F100.
N189 G3 X9.281 Y115. I9.281 J130.
N190 G1 X11.781
N191 X100. F160.
N192 G2 X115. Y100. I100. J100.
N193 G1 Y-100.
N194 G2 X100. Y-115. I100. J-100.
N195 G1 X-100.
N196 G2 X-115. Y-100. I-100. J-100.
N197 G1 Y100.
N198 G2 X-100. Y115. I-100. J100.
N199 G1 X14.281
N200 G3 X29.281 Y130. I14.281 J130. F150.
N201 G1 Z-55.46
N202 G0 Z50.
N203 M5
 ; TOOL: F12R1  N=4.4 D=12.00 r1=1.00 L=75.00
N204 T4.04 M6
 ; TOOL: F12R1  N=4.4 D=12.00 r1=1.00 L=75.00
N205 T4.04 M6
N206 G97 M42 S1400.
N207 M3
N208 G97 M42 S1400.
N209 M3
N210 G0 G90 X-34.747 Y15.573
N211 Z50.
N212 Z-30.
N213 G1 X-39. Y16.
N214 G3 I-35. J16. F100.
N215 G1 X-31.125 Y20.471 F160.
N216 G3 X-43.655 Y18.468 I-36.923 J16.548 F100.
N217 X-44. Y16. I-35. J16.
N218 I-35. J16. F160.
N219 X-43.655 Y13.532 I-35. J16.
N220 X-35.49 Y8.6 I-36.923 J15.452 F150.
N221 G0 Z50.
N222 X35.604 Y-15.339
N223 Z-30.
N224 G1 X31. Y-16.
N225 G3 I35. J-16. F100.
N226 G1 X38.875 Y-11.529 F160.
N227 G3 X26.345 Y-13.532 I33.077 J-15.452 F100.
N228 X26. Y-16. I35. J-16.
N229 I35. J-16. F160.
N230 X26.345 Y-18.468 I35. J-16.
N231 X34.51 Y-23.4 I33.077 J-16.548 F150.
N232 G0 Z50.
N233 M5
; N234 G79 Z0 T4.0 M6
; N235 (UAO,0)
; N236 G0 Z0
; N237 Y0 X0
; Time=75.16 min = 1 h 16 min
N238 M30
